X:1
T:Title
%%score ( 1 2 ) ( 3 4 )
L:1/8
Q:1/4=60
M:6/8
K:Ab
V:1 treble nm="Strings 1, Treble"
V:2 treble 
V:3 bass nm="Strings 1, Bass"
V:4 bass 
V:1
 [CE][CA][CA] [CA][CG][DF] | [DG][DG][DG] [DG]3 | [DE][DB][DB] [DB][CA][DG] | [CA][CA][DA] [CA]3 | %4
w: 1.~When~ I~ was~ tread ing~ the~|path way~ of~ wrong,~|When~ I~ was~ bound~ by~ the~|fet ters~ so~ strong,~|
 [CE][Ec][Ec] [Ec][EB][EA] | [DF][Fd][Fd] [Fd]2 [Fd]/[Fd]/ | [Ec]>[DB][CA] [DB]2 [DG] | %7
w: When~ I~ had~ lost~ all~ my~|sun shine~ and~ song,~ It~ was~|Je sus~ who~ set~ me~|
 [CA]3- [CA]2 [CE]/[CA]/ | [Ec]>[Ec][Ec] [Fd]2 [Ec] | B6 | [DB]>[DB][DB] [Ec]2 [DB] | A6 | %12
w: free.~ * * *|||||
 [DF][D=E][DF] [DA][DG][DF] | [CE][_C=D][=CE] [Ec]2[Q:1/4=60] [Ec]/[Ed]/[Q:1/4=12] | %14
w: ||
 [Ee]>[Ec][EA] [Ec]2 [DB] | A6 |] %16
w: ||
V:2
 x6 | x6 | x6 | x6 | x6 | x6 | x6 | x6 | x6 | E2 =D _D2 [DE]/[DG]/ | x6 | C2 D C3 | x6 | x6 | x6 | %15
 C2 D .C3 |] %16
V:3
 [A,,A,][A,,E,][A,,E,] [A,,E,][A,,E,][A,,A,] | [B,,E,][B,,E,][B,,E,] [E,B,]3 | %2
 [E,G,][E,G,][E,G,] [E,G,][E,A,][E,B,] | [A,,A,][A,,E,][A,,F,] [A,,E,]3 | %4
 [A,,A,][A,,A,][A,,A,] [A,,A,][B,,G,][C,A,] | [D,A,][D,A,][D,A,] [D,A,]2 [D,A,]/[D,A,]/ | %6
 [E,A,]>[E,G,][E,A,] [E,G,]2 [E,B,] | [A,,A,]3- [A,,A,]2 [A,,A,]/[A,,A,]/ | %8
 [A,,A,]>[A,,A,][A,,A,] [A,,A,]2 [A,,A,] | [E,G,]2 [F,A,] [E,G,]2 [E,G,]/[E,B,]/ | %10
 [E,G,]>[E,G,][E,G,] [E,A,]2 [E,G,] | A,2 F, E,2 A, | [D,A,][D,G,][D,A,] [D,F,][D,G,][D,A,] | %13
 [A,,A,][A,,A,][A,,A,] [A,,A,]2 A,/[A,B,]/ | [A,C]>A,[C,A,] [E,A,]2 [E,G,] | A,2 F, .E,3 |] %16
V:4
 x6 | x6 | x6 | x6 | x6 | x6 | x6 | x6 | x6 | x6 | x6 | A,,6 | x6 | x6 | x6 | A,,6 |] %16

